icons/square/48/multimc.svg

<?xml version="1.0" encoding="UTF-8" standalone="no"?>
<svg
   xmlns:dc="http://purl.org/dc/elements/1.1/"
   xmlns:cc="http://creativecommons.org/ns#"
   xmlns:rdf="http://www.w3.org/1999/02/22-rdf-syntax-ns#"
   xmlns:svg="http://www.w3.org/2000/svg"
   xmlns="http://www.w3.org/2000/svg"
   xmlns:sodipodi="http://sodipodi.sourceforge.net/DTD/sodipodi-0.dtd"
   xmlns:inkscape="http://www.inkscape.org/namespaces/inkscape"
   version="1.1"
   viewBox="0 0 48 48"
   id="svg23"
   sodipodi:docname="multimc-square.svg"
   inkscape:version="0.92.4 5da689c313, 2019-01-14">
  <metadata
     id="metadata27">
    <rdf:RDF>
      <cc:Work
         rdf:about="">
        <dc:format>image/svg+xml</dc:format>
        <dc:type
           rdf:resource="http://purl.org/dc/dcmitype/StillImage" />
      </cc:Work>
    </rdf:RDF>
  </metadata>
  <sodipodi:namedview
     pagecolor="#ffffff"
     bordercolor="#666666"
     borderopacity="1"
     objecttolerance="10"
     gridtolerance="10"
     guidetolerance="10"
     inkscape:pageopacity="0"
     inkscape:pageshadow="2"
     inkscape:window-width="1920"
     inkscape:window-height="992"
     id="namedview25"
     showgrid="false"
     inkscape:zoom="19.666667"
     inkscape:cx="25.301291"
     inkscape:cy="26.661534"
     inkscape:window-x="0"
     inkscape:window-y="0"
     inkscape:window-maximized="1"
     inkscape:current-layer="svg23" />
  <defs
     id="defs7">
    <linearGradient
       id="bg"
       x2="0"
       y1="1"
       y2="47"
       gradientUnits="userSpaceOnUse">
      <stop
         style="stop-color:#754c24"
         offset="0"
         id="stop2" />
      <stop
         style="stop-color:#654820"
         offset="1"
         id="stop4" />
    </linearGradient>
  </defs>
  <path
     d="m1 43v0.25c0 2.216 1.784 4 4 4h38c2.216 0 4-1.784 4-4v-0.25c0 2.216-1.784 4-4 4h-38c-2.216 0-4-1.784-4-4zm0 0.5v0.5c0 2.216 1.784 4 4 4h38c2.216 0 4-1.784 4-4v-0.5c0 2.216-1.784 4-4 4h-38c-2.216 0-4-1.784-4-4z"
     style="opacity:.02"
     id="path9" />
  <path
     d="m1 43.25v0.25c0 2.216 1.784 4 4 4h38c2.216 0 4-1.784 4-4v-0.25c0 2.216-1.784 4-4 4h-38c-2.216 0-4-1.784-4-4z"
     style="opacity:.05"
     id="path11" />
  <path
     d="m1 43v0.25c0 2.216 1.784 4 4 4h38c2.216 0 4-1.784 4-4v-0.25c0 2.216-1.784 4-4 4h-38c-2.216 0-4-1.784-4-4z"
     style="opacity:.1"
     id="path13" />
  <rect
     x="1"
     y="1"
     width="46"
     height="46"
     rx="4"
     style="fill:url(#bg)"
     id="rect15" />
  <path
     d="m1 39v4c0 2.216 1.784 4 4 4h38c2.216 0 4-1.784 4-4v-4c0 2.216-1.784 4-4 4h-38c-2.216 0-4-1.784-4-4z"
     style="opacity:.1"
     id="path17" />
  <path
     style="color:#000000;font-style:normal;font-variant:normal;font-weight:normal;font-stretch:normal;font-size:medium;line-height:normal;font-family:sans-serif;font-variant-ligatures:normal;font-variant-position:normal;font-variant-caps:normal;font-variant-numeric:normal;font-variant-alternates:normal;font-feature-settings:normal;text-indent:0;text-align:start;text-decoration:none;text-decoration-line:none;text-decoration-style:solid;text-decoration-color:#000000;letter-spacing:normal;word-spacing:normal;text-transform:none;writing-mode:lr-tb;direction:ltr;text-orientation:mixed;dominant-baseline:auto;baseline-shift:baseline;text-anchor:start;white-space:normal;shape-padding:0;clip-rule:nonzero;display:inline;overflow:visible;visibility:visible;opacity:0.1;isolation:auto;mix-blend-mode:normal;color-interpolation:sRGB;color-interpolation-filters:linearRGB;solid-color:#000000;solid-opacity:1;vector-effect:none;fill:#000000;fill-opacity:1;fill-rule:nonzero;stroke:none;stroke-width:2;stroke-linecap:butt;stroke-linejoin:miter;stroke-miterlimit:4;stroke-dasharray:none;stroke-dashoffset:0;stroke-opacity:1;color-rendering:auto;image-rendering:auto;shape-rendering:auto;text-rendering:auto;enable-background:accumulate"
     d="m 17,18 c -1.722222,0 -3.418979,0.559814 -4.738281,1.585938 C 10.942417,20.612061 10,22.166667 10,24 c 0,1.833333 0.942417,3.387939 2.261719,4.414062 C 13.581021,29.440186 15.277778,30 17,30 c 2.416667,0 4.36275,-1.448688 5.707031,-2.792969 0.808187,-0.808186 0.932047,-1.101902 1.292969,-1.61914 0.360922,0.517238 0.484782,0.810954 1.292969,1.61914 C 26.63725,28.551312 28.583333,30 31,30 32.722222,30 34.418979,29.440186 35.738281,28.414062 37.057583,27.387939 38,25.833333 38,24 38,22.166667 37.057583,20.612061 35.738281,19.585938 34.418979,18.559814 32.722222,18 31,18 28.583333,18 26.63725,19.448688 25.292969,20.792969 24.484782,21.601155 24.360922,21.894871 24,22.412109 23.639078,21.894871 23.515218,21.601155 22.707031,20.792969 21.36275,19.448688 19.416667,18 17,18 Z m 0,2 c 1.583333,0 3.13725,1.051312 4.292969,2.207031 0.898296,0.898297 1.206187,1.438456 1.4375,1.792969 -0.231313,0.354513 -0.539204,0.894672 -1.4375,1.792969 C 20.13725,26.948688 18.583333,28 17,28 15.722222,28 14.418979,27.559814 13.488281,26.835938 12.557583,26.112061 12,25.166667 12,24 12,22.833333 12.557583,21.887939 13.488281,21.164062 14.418979,20.440186 15.722222,20 17,20 Z m 14,0 c 1.277778,0 2.581021,0.440186 3.511719,1.164062 C 35.442417,21.887939 36,22.833333 36,24 36,25.166667 35.442417,26.112061 34.511719,26.835938 33.581021,27.559814 32.277778,28 31,28 29.416667,28 27.86275,26.948688 26.707031,25.792969 25.808735,24.894672 25.500844,24.354513 25.269531,24 c 0.231313,-0.354513 0.539204,-0.894672 1.4375,-1.792969 C 27.86275,21.051312 29.416667,20 31,20 Z"
     id="path882-3"
     inkscape:connector-curvature="0" />
  <path
     style="color:#000000;font-style:normal;font-variant:normal;font-weight:normal;font-stretch:normal;font-size:medium;line-height:normal;font-family:sans-serif;font-variant-ligatures:normal;font-variant-position:normal;font-variant-caps:normal;font-variant-numeric:normal;font-variant-alternates:normal;font-feature-settings:normal;text-indent:0;text-align:start;text-decoration:none;text-decoration-line:none;text-decoration-style:solid;text-decoration-color:#000000;letter-spacing:normal;word-spacing:normal;text-transform:none;writing-mode:lr-tb;direction:ltr;text-orientation:mixed;dominant-baseline:auto;baseline-shift:baseline;text-anchor:start;white-space:normal;shape-padding:0;clip-rule:nonzero;display:inline;overflow:visible;visibility:visible;opacity:1;isolation:auto;mix-blend-mode:normal;color-interpolation:sRGB;color-interpolation-filters:linearRGB;solid-color:#000000;solid-opacity:1;vector-effect:none;fill:#75b54b;fill-opacity:1;fill-rule:nonzero;stroke:none;stroke-width:2;stroke-linecap:butt;stroke-linejoin:miter;stroke-miterlimit:4;stroke-dasharray:none;stroke-dashoffset:0;stroke-opacity:1;color-rendering:auto;image-rendering:auto;shape-rendering:auto;text-rendering:auto;enable-background:accumulate"
     d="m 17,17 c -1.722222,0 -3.418979,0.559814 -4.738281,1.585938 C 10.942417,19.612061 10,21.166667 10,23 c 0,1.833333 0.942417,3.387939 2.261719,4.414062 C 13.581021,28.440186 15.277778,29 17,29 c 2.416667,0 4.36275,-1.448688 5.707031,-2.792969 0.808187,-0.808186 0.932047,-1.101902 1.292969,-1.61914 0.360922,0.517238 0.484782,0.810954 1.292969,1.61914 C 26.63725,27.551312 28.583333,29 31,29 32.722222,29 34.418979,28.440186 35.738281,27.414062 37.057583,26.387939 38,24.833333 38,23 38,21.166667 37.057583,19.612061 35.738281,18.585938 34.418979,17.559814 32.722222,17 31,17 28.583333,17 26.63725,18.448688 25.292969,19.792969 24.484782,20.601155 24.360922,20.894871 24,21.412109 23.639078,20.894871 23.515218,20.601155 22.707031,19.792969 21.36275,18.448688 19.416667,17 17,17 Z m 0,2 c 1.583333,0 3.13725,1.051312 4.292969,2.207031 0.898296,0.898297 1.206187,1.438456 1.4375,1.792969 -0.231313,0.354513 -0.539204,0.894672 -1.4375,1.792969 C 20.13725,25.948688 18.583333,27 17,27 15.722222,27 14.418979,26.559814 13.488281,25.835938 12.557583,25.112061 12,24.166667 12,23 12,21.833333 12.557583,20.887939 13.488281,20.164062 14.418979,19.440186 15.722222,19 17,19 Z m 14,0 c 1.277778,0 2.581021,0.440186 3.511719,1.164062 C 35.442417,20.887939 36,21.833333 36,23 36,24.166667 35.442417,25.112061 34.511719,25.835938 33.581021,26.559814 32.277778,27 31,27 29.416667,27 27.86275,25.948688 26.707031,24.792969 25.808735,23.894672 25.500844,23.354513 25.269531,23 c 0.231313,-0.354513 0.539204,-0.894672 1.4375,-1.792969 C 27.86275,20.051312 29.416667,19 31,19 Z"
     id="path882"
     inkscape:connector-curvature="0" />
</svg>

<svg version="1.1" viewBox="0 0 48 48" xmlns="http://www.w3.org/2000/svg">
 <defs>
  <linearGradient id="bg" x2="0" y1="1" y2="47" gradientUnits="userSpaceOnUse">
   <stop style="stop-color:#754c24" offset="0"/>
   <stop style="stop-color:#654820" offset="1"/>
  </linearGradient>
 </defs>
 <path d="m1 43v0.25c0 2.216 1.784 4 4 4h38c2.216 0 4-1.784 4-4v-0.25c0 2.216-1.784 4-4 4h-38c-2.216 0-4-1.784-4-4zm0 0.5v0.5c0 2.216 1.784 4 4 4h38c2.216 0 4-1.784 4-4v-0.5c0 2.216-1.784 4-4 4h-38c-2.216 0-4-1.784-4-4z" style="opacity:.02"/>
 <path d="m1 43.25v0.25c0 2.216 1.784 4 4 4h38c2.216 0 4-1.784 4-4v-0.25c0 2.216-1.784 4-4 4h-38c-2.216 0-4-1.784-4-4z" style="opacity:.05"/>
 <path d="m1 43v0.25c0 2.216 1.784 4 4 4h38c2.216 0 4-1.784 4-4v-0.25c0 2.216-1.784 4-4 4h-38c-2.216 0-4-1.784-4-4z" style="opacity:.1"/>
 <rect x="1" y="1" width="46" height="46" rx="4" style="fill:url(#bg)"/>
 <path d="m1 39v4c0 2.216 1.784 4 4 4h38c2.216 0 4-1.784 4-4v-4c0 2.216-1.784 4-4 4h-38c-2.216 0-4-1.784-4-4z" style="opacity:.1"/>
 <path d="m17 18c-1.7222 0-3.419 0.55981-4.7383 1.5859-1.3193 1.0261-2.2617 2.5807-2.2617 4.4141s0.94242 3.3879 2.2617 4.4141c1.3193 1.0261 3.0161 1.5859 4.7383 1.5859 2.4167 0 4.3628-1.4487 5.707-2.793 0.80819-0.80819 0.93205-1.1019 1.293-1.6191 0.36092 0.51724 0.48478 0.81095 1.293 1.6191 1.3443 1.3443 3.2904 2.793 5.707 2.793 1.7222 0 3.419-0.55981 4.7383-1.5859 1.3193-1.0261 2.2617-2.5807 2.2617-4.4141s-0.94242-3.3879-2.2617-4.4141c-1.3193-1.0261-3.0161-1.5859-4.7383-1.5859-2.4167 0-4.3628 1.4487-5.707 2.793-0.80819 0.80819-0.93205 1.1019-1.293 1.6191-0.36092-0.51724-0.48478-0.81095-1.293-1.6191-1.3443-1.3443-3.2904-2.793-5.707-2.793zm0 2c1.5833 0 3.1372 1.0513 4.293 2.207 0.8983 0.8983 1.2062 1.4385 1.4375 1.793-0.23131 0.35451-0.5392 0.89467-1.4375 1.793-1.1557 1.1557-2.7096 2.207-4.293 2.207-1.2778 0-2.581-0.44019-3.5117-1.1641-0.9307-0.72388-1.4883-1.6693-1.4883-2.8359s0.55758-2.1121 1.4883-2.8359c0.9307-0.72388 2.2339-1.1641 3.5117-1.1641zm14 0c1.2778 0 2.581 0.44019 3.5117 1.1641 0.9307 0.72388 1.4883 1.6693 1.4883 2.8359s-0.55758 2.1121-1.4883 2.8359c-0.9307 0.72388-2.2339 1.1641-3.5117 1.1641-1.5833 0-3.1372-1.0513-4.293-2.207-0.8983-0.8983-1.2062-1.4385-1.4375-1.793 0.23131-0.35451 0.5392-0.89467 1.4375-1.793 1.1557-1.1557 2.7096-2.207 4.293-2.207z" style="color-rendering:auto;color:#000000;dominant-baseline:auto;font-feature-settings:normal;font-variant-alternates:normal;font-variant-caps:normal;font-variant-ligatures:normal;font-variant-numeric:normal;font-variant-position:normal;image-rendering:auto;isolation:auto;mix-blend-mode:normal;opacity:.1;shape-padding:0;shape-rendering:auto;solid-color:#000000;text-decoration-color:#000000;text-decoration-line:none;text-decoration-style:solid;text-indent:0;text-orientation:mixed;text-transform:none;white-space:normal"/>
 <path d="m17 17c-1.7222 0-3.419 0.55981-4.7383 1.5859-1.3193 1.0261-2.2617 2.5807-2.2617 4.4141s0.94242 3.3879 2.2617 4.4141c1.3193 1.0261 3.0161 1.5859 4.7383 1.5859 2.4167 0 4.3628-1.4487 5.707-2.793 0.80819-0.80819 0.93205-1.1019 1.293-1.6191 0.36092 0.51724 0.48478 0.81095 1.293 1.6191 1.3443 1.3443 3.2904 2.793 5.707 2.793 1.7222 0 3.419-0.55981 4.7383-1.5859 1.3193-1.0261 2.2617-2.5807 2.2617-4.4141s-0.94242-3.3879-2.2617-4.4141c-1.3193-1.0261-3.0161-1.5859-4.7383-1.5859-2.4167 0-4.3628 1.4487-5.707 2.793-0.80819 0.80819-0.93205 1.1019-1.293 1.6191-0.36092-0.51724-0.48478-0.81095-1.293-1.6191-1.3443-1.3443-3.2904-2.793-5.707-2.793zm0 2c1.5833 0 3.1372 1.0513 4.293 2.207 0.8983 0.8983 1.2062 1.4385 1.4375 1.793-0.23131 0.35451-0.5392 0.89467-1.4375 1.793-1.1557 1.1557-2.7096 2.207-4.293 2.207-1.2778 0-2.581-0.44019-3.5117-1.1641-0.9307-0.72388-1.4883-1.6693-1.4883-2.8359s0.55758-2.1121 1.4883-2.8359c0.9307-0.72388 2.2339-1.1641 3.5117-1.1641zm14 0c1.2778 0 2.581 0.44019 3.5117 1.1641 0.9307 0.72388 1.4883 1.6693 1.4883 2.8359s-0.55758 2.1121-1.4883 2.8359c-0.9307 0.72388-2.2339 1.1641-3.5117 1.1641-1.5833 0-3.1372-1.0513-4.293-2.207-0.8983-0.8983-1.2062-1.4385-1.4375-1.793 0.23131-0.35451 0.5392-0.89467 1.4375-1.793 1.1557-1.1557 2.7096-2.207 4.293-2.207z" style="color-rendering:auto;color:#000000;dominant-baseline:auto;fill:#75b54b;font-feature-settings:normal;font-variant-alternates:normal;font-variant-caps:normal;font-variant-ligatures:normal;font-variant-numeric:normal;font-variant-position:normal;image-rendering:auto;isolation:auto;mix-blend-mode:normal;shape-padding:0;shape-rendering:auto;solid-color:#000000;text-decoration-color:#000000;text-decoration-line:none;text-decoration-style:solid;text-indent:0;text-orientation:mixed;text-transform:none;white-space:normal"/>
</svg>
